src/components/Nav/img/Beregning_sort.svg

<?xml version="1.0" encoding="UTF-8"?>
<svg width="28px" height="28px" viewBox="0 0 28 28" version="1.1" xmlns="http://www.w3.org/2000/svg" xmlns:xlink="http://www.w3.org/1999/xlink">
    <!-- Generator: Sketch 55.1 (78136) - https://sketchapp.com -->
    <title>Beregning Copy</title>
    <desc>Created with Sketch.</desc>
    <g id="Beregning-Copy" stroke="none" stroke-width="1" fill="none" fill-rule="evenodd">
        <g id="Group-31-Copy-3" transform="translate(1.000000, 1.000000)" stroke="#3E3832">
            <g id="Group-31-Copy">
                <path d="M9.84053203,18.6009879 L11.7512135,20.5116693 C11.9774326,20.7378884 11.9774326,21.1056395 11.7512135,21.3318586 C11.6375239,21.4443881 11.4890313,21.5012329 11.3405388,21.5012329 C11.1920462,21.5012329 11.0435537,21.4443881 10.9298641,21.3318586 L9.02034273,19.4223373 L7.11082138,21.3318586 C6.99713177,21.4443881 6.84863923,21.5012329 6.70014668,21.5012329 C6.55165413,21.5012329 6.40316159,21.4443881 6.29063208,21.3306985 C6.06441296,21.1044794 6.06441296,20.7367283 6.29063208,20.5105092 L8.20015342,18.6009879 L6.29063208,16.6914665 C6.06441296,16.4652474 6.06441296,16.0974964 6.29063208,15.8712772 C6.51685119,15.6450581 6.88460227,15.6450581 7.11082138,15.8712772 L9.02034273,17.7807986 L10.9298641,15.8712772 C11.1560832,15.6450581 11.5238343,15.6450581 11.7500534,15.8712772 C11.9762725,16.0974964 11.9762725,16.4652474 11.7500534,16.6914665 L9.84053203,18.6009879 Z M5.81552422,9.20866952 C5.5022238,9.20866952 5.25,8.95531467 5.25,8.64314531 C5.25,8.33097594 5.50335485,8.07762109 5.81552422,8.07762109 L8.07762109,8.07762109 L8.07762109,5.81552422 C8.07762109,5.50335485 8.33097594,5.25 8.64314531,5.25 C8.95531467,5.25 9.20866952,5.50335485 9.20866952,5.81552422 L9.20866952,8.07762109 L11.4707664,8.07762109 C11.7829358,8.07762109 12.0362906,8.33097594 12.0362906,8.64314531 C12.0362906,8.95531467 11.7829358,9.20866952 11.4707664,9.20866952 L9.20866952,9.20866952 L9.20866952,11.4707664 C9.20866952,11.7829358 8.95531467,12.0362906 8.64314531,12.0362906 C8.33097594,12.0362906 8.07762109,11.7829358 8.07762109,11.4707664 L8.07762109,9.20866952 L5.81552422,9.20866952 Z M15.9042339,8.70060484 C15.5909335,8.70060484 15.3387097,8.47976613 15.3387097,8.20766129 C15.3387097,7.93555645 15.5920645,7.71471774 15.9042339,7.71471774 L21.5594761,7.71471774 C21.8716454,7.71471774 22.1250003,7.93555645 22.1250003,8.20766129 C22.1250003,8.47976613 21.8716454,8.70060484 21.5594761,8.70060484 L15.9042339,8.70060484 Z M21.5594761,19.5453629 C21.8716454,19.5453629 22.1250003,19.7987178 22.1250003,20.1108871 C22.1250003,20.4230565 21.8716454,20.6764113 21.5594761,20.6764113 L15.9042339,20.6764113 C15.5920645,20.6764113 15.3387097,20.4230565 15.3387097,20.1108871 C15.3387097,19.7987178 15.5920645,19.5453629 15.9042339,19.5453629 L21.5594761,19.5453629 Z M21.5594761,16.702621 C21.8716454,16.702621 22.1250003,16.9559758 22.1250003,17.2681452 C22.1250003,17.5803146 21.8716454,17.8336694 21.5594761,17.8336694 L15.9042339,17.8336694 C15.5920645,17.8336694 15.3387097,17.5803146 15.3387097,17.2681452 C15.3387097,16.9559758 15.5920645,16.702621 15.9042339,16.702621 L21.5594761,16.702621 Z" id="Combined-Shape-Copy-2" stroke-width="0.3" fill="#3E3832"></path>
                <rect id="Rectangle" stroke-width="1.5" x="0.75" y="0.75" width="25.5" height="25.5" rx="4"></rect>
            </g>
        </g>
    </g>
</svg>

<svg width="28" height="28" xmlns="http://www.w3.org/2000/svg">
    <g transform="translate(1 1)" stroke="#3E3832" fill="none" fill-rule="evenodd">
        <path d="M9.84 18.601l1.911 1.91a.58.58 0 0 1-.821.82l-1.91-1.909-1.91 1.91a.583.583 0 0 1-.82-.001.58.58 0 0 1 0-.82L8.2 18.6l-1.91-1.91a.58.58 0 0 1 .82-.82l1.91 1.91 1.91-1.91a.58.58 0 0 1 .82.82l-1.91 1.91zM5.817 9.209a.565.565 0 1 1 0-1.131h2.262V5.816a.566.566 0 0 1 1.13 0v2.262h2.263a.566.566 0 0 1 0 1.13H9.209v2.263a.566.566 0 0 1-1.131 0V9.209H5.816zM15.904 8.7c-.313 0-.565-.221-.565-.493s.253-.493.565-.493h5.655c.313 0 .566.22.566.493 0 .272-.253.493-.566.493h-5.655zm5.655 10.844a.566.566 0 0 1 0 1.131h-5.655a.566.566 0 0 1 0-1.13h5.655zm0-2.842a.566.566 0 0 1 0 1.13h-5.655a.566.566 0 0 1 0-1.13h5.655z"
              stroke-width=".3" fill="#3E3832"/>
        <rect stroke-width="1.5" x=".75" y=".75" width="25.5" height="25.5" rx="4"/>
    </g>
</svg>
